X:1
T:Title
L:1/8
M:4/4
I:linebreak $
K:D
V:1 treble nm="Voice"
V:1
"D" D3 E FD"A" E2- | E A2 G FAFD |"D" A,2 DE FDED |1"A" CEGE"D" FDDA, :|2"A" CEGE"D" FD D2 |: %5
"D" Addd cdcB | Acde fdec |"G" dfed cBcA |"A" GECE"D" FD D2 :| %9
